public/images/heroBg.svg

<svg clip-rule="evenodd" fill-rule="evenodd" stroke-linecap="round" stroke-linejoin="round" viewBox="0 0 705 601" xmlns="http://www.w3.org/2000/svg"><path d="m0 0h705v601h-705z" fill="none"/><path d="m616.875 591v-6.415c.002-5.17-1.183-10.271-3.465-14.91l-1.455-2.96c-2.929-5.964-4.453-12.52-4.455-19.165v-25.6c0-3.94 3.15-7.14 7.03-7.14 3.885 0 7.035 3.2 7.035 7.14m37.5 69.05v-6.395c.01-5.715 5.975-8.625 10.855-11.47 5.58-3.255 10.05-8.51 12.115-14.83 1.355-4.16-2.4-7.775-6.89-7.775s-8.3 3.92-11.55 6.925c-.429.402-.892.765-1.385 1.085-6.34 4.045-14.805-.82-14.805-8.01s8.465-12.055 14.805-8.015c1.58.83 2.885 1.93 3.925 3.075 2.365 2.6 5.48 4.94 9.05 4.94 4.565 0 8.395-3.685 7.04-7.925-1.725-5.322-5.096-9.959-9.627-13.241-4.532-3.282-9.988-5.039-15.583-5.019-4.985 0-7.33 1.41-7.33 1.41l10.725-25.02c1.875-4.645-1.485-9.735-6.43-9.735-2.63 0-5.035 1.51-6.215 3.9l-12.14 24.67m0 0-2.24 4.55m2.24-4.55v-16.665c0-3.945-3.15-7.145-7.03-7.145-3.885 0-7.03 3.2-7.03 7.145v35.715" fill="none" stroke="#000" stroke-opacity=".8" stroke-width="4"/><g fill-opacity=".8" fill-rule="nonzero"><path d="m590 343.008c.793 0 1.554-.315 2.114-.876.561-.56.876-1.321.876-2.114s-.315-1.553-.876-2.114c-.56-.561-1.321-.876-2.114-.876s-1.554.315-2.114.876c-.561.561-.876 1.321-.876 2.114s.315 1.554.876 2.114c.56.561 1.321.876 2.114.876zm14.892 5.012c0 .793-.315 1.554-.876 2.114-.56.561-1.321.876-2.114.876s-1.554-.315-2.114-.876c-.561-.56-.876-1.321-.876-2.114s.315-1.553.876-2.114c.56-.561 1.321-.876 2.114-.876s1.554.315 2.114.876c.561.561.876 1.321.876 2.114zm-14.876 13.012c.394 0 .785-.078 1.15-.229.364-.151.695-.372.974-.651s.5-.61.651-.974c.151-.365.229-.755.229-1.15 0-.394-.078-.785-.229-1.149-.151-.365-.372-.696-.651-.975s-.61-.5-.974-.651c-.365-.151-.756-.229-1.15-.229-.797 0-1.561.317-2.124.88-.564.563-.88 1.327-.88 2.124s.316 1.561.88 2.124c.563.564 1.327.88 2.124.88zm-14.016-38.208c0-4.38 3.58-8.088 8.12-7.808 17.788 1.096 33.388 7.08 45.608 18.748 3.468 3.308 2.784 8.712-.812 11.472-5.596 4.32-11.229 8.591-16.9 12.812v6.96c0 2.868-2.22 6-6 6-.677-.001-1.349-.109-1.992-.32v.332c0 2.852-2.224 5.964-6.012 5.964-3.016 0-5.004-1.984-5.704-4.2-2.192 1.64-4.588 3.424-6.728 5.016-3.96 2.948-9.58.12-9.58-4.8zm28.024 42.184c0 1.036.776 2 1.992 2 1.22 0 2-.972 2-2v-7.976c0-.315.075-.626.218-.907s.351-.524.606-.709c3.12-2.264 8.432-6.3 13.136-9.896-10.772-10.252-25.872-16.336-41.976-16.464v43.94c.001.37.105.733.3 1.047.195.315.473.569.804.735s.701.237 1.07.205c.368-.033.721-.166 1.018-.387 3.144-2.344 6.852-5.104 9.636-7.192.297-.223.65-.358 1.02-.392.37-.033.742.037 1.074.203.333.166.612.422.807.738.196.316.299.68.299 1.051v2.016c0 .988.76 1.968 1.984 1.968.262.007.523-.04.767-.136s.466-.24.653-.423c.187-.184.336-.403.437-.645s.152-.502.151-.764v-6.012c0-.53.211-1.039.586-1.414s.884-.586 1.414-.586 1.039.211 1.414.586.59.884.59 1.414zm22.448-22.94c1.86-1.428 2-3.972.488-5.416-11.428-10.908-26.08-16.6-43.088-17.648-2.072-.128-3.872 1.576-3.872 3.82v2.232c17.308.132 33.612 6.748 45.188 18z"/><path d="m488.192 178.74c.197.031.399.022.593-.026.194-.049.376-.135.536-.255.16-.119.294-.27.396-.442.101-.172.166-.363.193-.561.026-.198.013-.399-.04-.592-.052-.193-.143-.373-.266-.531-.123-.157-.276-.288-.451-.385-.174-.098-.367-.159-.565-.181-2.82-.375-5.34 1.767-5.34 4.893 0 .398.158.779.439 1.061.281.281.663.439 1.061.439s.779-.158 1.06-.439c.282-.282.44-.663.44-1.061 0-1.371.984-2.049 1.944-1.92zm1.032 16.155c3.576 0 7.006-1.421 9.535-3.95s3.95-5.959 3.95-9.535-1.421-7.006-3.95-9.535-5.959-3.95-9.535-3.95c-3.577 0-7.007 1.421-9.536 3.95-2.528 2.529-3.949 5.959-3.949 9.535s1.421 7.006 3.949 9.535c2.529 2.529 5.959 3.95 9.536 3.95zm0-3c-2.781 0-5.448-1.105-7.414-3.071-1.967-1.966-3.071-4.633-3.071-7.414s1.104-5.448 3.071-7.414c1.966-1.966 4.633-3.071 7.414-3.071s5.448 1.105 7.414 3.071 3.071 4.633 3.071 7.414-1.105 5.448-3.071 7.414-4.633 3.071-7.414 3.071zm3.654-35.67c3.135.204 6.078 1.137 8.181 2.463 4.821 3.045 6.9 6.393 8.1 8.49 1.167 2.034 3.468 6.549 3.138 11.472-.087 1.326-.261 2.645-.522 3.948l-.12.642c-.168.972-.273 1.968-.096 4.134.21 2.553-.306 5.349-1.386 7.83-1.08 2.475-2.775 4.761-5.034 6.171-4.695 2.934-10.35 3.57-15.654 1.449-2.427-.969-3.246-1.2-4.164-1.254-.646-.024-1.293-.018-1.938.018h-.021c-.87.036-1.986.078-3.537.078-6.819 0-11.355-4.08-13.671-8.532-3.393-6.528-3.3-16.41 4.161-22.299 2.28-1.8 2.961-2.4 3.729-3.681 1.263-2.106 2.463-3.756 3.915-5.178 1.455-1.428 3.108-2.577 5.232-3.744 3.087-1.698 6.54-2.214 9.687-2.01m-.195 2.994c-2.7-.18-5.562.276-8.049 1.644-1.962 1.08-3.372 2.076-4.575 3.255-1.203 1.182-2.253 2.598-3.441 4.578-1.086 1.809-2.184 2.709-4.443 4.491-6.03 4.761-6.288 12.93-3.36 18.564 1.935 3.72 5.574 6.915 11.01 6.915 1.494 0 2.568-.042 3.429-.075h.057c.828-.03 1.53-.06 2.199-.015 1.449.09 2.67.495 5.088 1.464 4.383 1.752 9.036 1.239 12.951-1.209 1.614-1.008 2.97-2.745 3.873-4.827.906-2.076 1.314-4.374 1.149-6.384-.198-2.397-.09-3.648.129-4.896l.135-.723c.171-.909.354-1.875.468-3.552.27-3.981-1.629-7.83-2.745-9.78-1.083-1.884-2.862-4.77-7.101-7.443-1.62-1.023-4.062-1.827-6.774-2.007z"/></g></svg>

<?xml version="1.0" encoding="UTF-8" standalone="no"?>
<!DOCTYPE svg PUBLIC "-//W3C//DTD SVG 1.1//EN" "http://www.w3.org/Graphics/SVG/1.1/DTD/svg11.dtd">
<svg width="100%" height="100%" viewBox="0 0 705 601" version="1.1" xmlns="http://www.w3.org/2000/svg" xmlns:xlink="http://www.w3.org/1999/xlink" xml:space="preserve" xmlns:serif="http://www.serif.com/" style="fill-rule:evenodd;clip-rule:evenodd;stroke-linecap:round;stroke-linejoin:round;">
    <rect id="Plan-de-travail1" serif:id="Plan de travail1" x="0" y="0" width="705" height="601" style="fill:none;"/>
    <g id="Plan-de-travail11" serif:id="Plan de travail1">
        <g>
            <path d="M616.875,591L616.875,584.585C616.877,579.415 615.692,574.314 613.41,569.675L611.955,566.715C609.026,560.751 607.502,554.195 607.5,547.55L607.5,521.95C607.5,518.01 610.65,514.81 614.53,514.81C618.415,514.81 621.565,518.01 621.565,521.95M659.065,591L659.065,584.605C659.075,578.89 665.04,575.98 669.92,573.135C675.5,569.88 679.97,564.625 682.035,558.305C683.39,554.145 679.635,550.53 675.145,550.53C670.655,550.53 666.845,554.45 663.595,557.455C663.166,557.857 662.703,558.22 662.21,558.54C655.87,562.585 647.405,557.72 647.405,550.53C647.405,543.34 655.87,538.475 662.21,542.515C663.79,543.345 665.095,544.445 666.135,545.59C668.5,548.19 671.615,550.53 675.185,550.53C679.75,550.53 683.58,546.845 682.225,542.605C680.5,537.283 677.129,532.646 672.598,529.364C668.066,526.082 662.61,524.325 657.015,524.345C652.03,524.345 649.685,525.755 649.685,525.755L660.41,500.735C662.285,496.09 658.925,491 653.98,491C651.35,491 648.945,492.51 647.765,494.9L635.625,519.57M635.625,519.57L633.385,524.12M635.625,519.57L635.625,502.905C635.625,498.96 632.475,495.76 628.595,495.76C624.71,495.76 621.565,498.96 621.565,502.905L621.565,538.62" style="fill:none;fill-rule:nonzero;stroke:black;stroke-opacity:0.8;stroke-width:4px;"/>
            <path d="M590,343.008C590.793,343.008 591.554,342.693 592.114,342.132C592.675,341.572 592.99,340.811 592.99,340.018C592.99,339.225 592.675,338.465 592.114,337.904C591.554,337.343 590.793,337.028 590,337.028C589.207,337.028 588.446,337.343 587.886,337.904C587.325,338.465 587.01,339.225 587.01,340.018C587.01,340.811 587.325,341.572 587.886,342.132C588.446,342.693 589.207,343.008 590,343.008ZM604.892,348.02C604.892,348.813 604.577,349.574 604.016,350.134C603.456,350.695 602.695,351.01 601.902,351.01C601.109,351.01 600.348,350.695 599.788,350.134C599.227,349.574 598.912,348.813 598.912,348.02C598.912,347.227 599.227,346.467 599.788,345.906C600.348,345.345 601.109,345.03 601.902,345.03C602.695,345.03 603.456,345.345 604.016,345.906C604.577,346.467 604.892,347.227 604.892,348.02ZM590.016,361.032C590.41,361.032 590.801,360.954 591.166,360.803C591.53,360.652 591.861,360.431 592.14,360.152C592.419,359.873 592.64,359.542 592.791,359.178C592.942,358.813 593.02,358.423 593.02,358.028C593.02,357.634 592.942,357.243 592.791,356.879C592.64,356.514 592.419,356.183 592.14,355.904C591.861,355.625 591.53,355.404 591.166,355.253C590.801,355.102 590.41,355.024 590.016,355.024C589.219,355.024 588.455,355.341 587.892,355.904C587.328,356.467 587.012,357.231 587.012,358.028C587.012,358.825 587.328,359.589 587.892,360.152C588.455,360.716 589.219,361.032 590.016,361.032ZM576,322.824C576,318.444 579.58,314.736 584.12,315.016C601.908,316.112 617.508,322.096 629.728,333.764C633.196,337.072 632.512,342.476 628.916,345.236C623.32,349.556 617.687,353.827 612.016,358.048L612.016,365.008C612.016,367.876 609.796,371.008 606.016,371.008C605.339,371.007 604.667,370.899 604.024,370.688L604.024,371.02C604.024,373.872 601.8,376.984 598.012,376.984C594.996,376.984 593.008,375 592.308,372.784C590.116,374.424 587.72,376.208 585.58,377.8C581.62,380.748 576,377.92 576,373L576,322.824ZM604.024,365.008C604.024,366.044 604.8,367.008 606.016,367.008C607.236,367.008 608.016,366.036 608.016,365.008L608.016,357.032C608.016,356.717 608.091,356.406 608.234,356.125C608.377,355.844 608.585,355.601 608.84,355.416C611.96,353.152 617.272,349.116 621.976,345.52C611.204,335.268 596.104,329.184 580,329.056L580,372.996C580.001,373.366 580.105,373.729 580.3,374.043C580.495,374.358 580.773,374.612 581.104,374.778C581.435,374.944 581.805,375.015 582.174,374.983C582.542,374.95 582.895,374.817 583.192,374.596C586.336,372.252 590.044,369.492 592.828,367.404C593.125,367.181 593.478,367.046 593.848,367.012C594.218,366.979 594.59,367.049 594.922,367.215C595.255,367.381 595.534,367.637 595.729,367.953C595.925,368.269 596.028,368.633 596.028,369.004L596.028,371.02C596.028,372.008 596.788,372.988 598.012,372.988C598.274,372.995 598.535,372.948 598.779,372.852C599.023,372.756 599.245,372.612 599.432,372.429C599.619,372.245 599.768,372.026 599.869,371.784C599.97,371.542 600.021,371.282 600.02,371.02L600.02,365.008C600.02,364.478 600.231,363.969 600.606,363.594C600.981,363.219 601.49,363.008 602.02,363.008C602.55,363.008 603.059,363.219 603.434,363.594C603.809,363.969 604.024,364.478 604.024,365.008ZM626.472,342.068C628.332,340.64 628.472,338.096 626.96,336.652C615.532,325.744 600.88,320.052 583.872,319.004C581.8,318.876 580,320.58 580,322.824L580,325.056C597.308,325.188 613.612,331.804 625.188,343.056L626.472,342.068Z" style="fill-opacity:0.8;fill-rule:nonzero;"/>
            <path d="M488.192,178.74C488.389,178.771 488.591,178.762 488.785,178.714C488.979,178.665 489.161,178.579 489.321,178.459C489.481,178.34 489.615,178.189 489.717,178.017C489.818,177.845 489.883,177.654 489.91,177.456C489.936,177.258 489.923,177.057 489.87,176.864C489.818,176.671 489.727,176.491 489.604,176.333C489.481,176.176 489.328,176.045 489.153,175.948C488.979,175.85 488.786,175.789 488.588,175.767C485.768,175.392 483.248,177.534 483.248,180.66C483.248,181.058 483.406,181.439 483.687,181.721C483.968,182.002 484.35,182.16 484.748,182.16C485.146,182.16 485.527,182.002 485.808,181.721C486.09,181.439 486.248,181.058 486.248,180.66C486.248,179.289 487.232,178.611 488.192,178.74ZM489.224,194.895C492.8,194.895 496.23,193.474 498.759,190.945C501.288,188.416 502.709,184.986 502.709,181.41C502.709,177.834 501.288,174.404 498.759,171.875C496.23,169.346 492.8,167.925 489.224,167.925C485.647,167.925 482.217,169.346 479.688,171.875C477.16,174.404 475.739,177.834 475.739,181.41C475.739,184.986 477.16,188.416 479.688,190.945C482.217,193.474 485.647,194.895 489.224,194.895ZM489.224,191.895C486.443,191.895 483.776,190.79 481.81,188.824C479.843,186.858 478.739,184.191 478.739,181.41C478.739,178.629 479.843,175.962 481.81,173.996C483.776,172.03 486.443,170.925 489.224,170.925C492.005,170.925 494.672,172.03 496.638,173.996C498.604,175.962 499.709,178.629 499.709,181.41C499.709,184.191 498.604,186.858 496.638,188.824C494.672,190.79 492.005,191.895 489.224,191.895ZM492.878,156.225C496.013,156.429 498.956,157.362 501.059,158.688C505.88,161.733 507.959,165.081 509.159,167.178C510.326,169.212 512.627,173.727 512.297,178.65C512.21,179.976 512.036,181.295 511.775,182.598L511.655,183.24C511.487,184.212 511.382,185.208 511.559,187.374C511.769,189.927 511.253,192.723 510.173,195.204C509.093,197.679 507.398,199.965 505.139,201.375C500.444,204.309 494.789,204.945 489.485,202.824C487.058,201.855 486.239,201.624 485.321,201.57C484.675,201.546 484.028,201.552 483.383,201.588L483.362,201.588C482.492,201.624 481.376,201.666 479.825,201.666C473.006,201.666 468.47,197.586 466.154,193.134C462.761,186.606 462.854,176.724 470.315,170.835C472.595,169.035 473.276,168.435 474.044,167.154C475.307,165.048 476.507,163.398 477.959,161.976C479.414,160.548 481.067,159.399 483.191,158.232C486.278,156.534 489.731,156.018 492.878,156.222M492.683,159.216C489.983,159.036 487.121,159.492 484.634,160.86C482.672,161.94 481.262,162.936 480.059,164.115C478.856,165.297 477.806,166.713 476.618,168.693C475.532,170.502 474.434,171.402 472.175,173.184C466.145,177.945 465.887,186.114 468.815,191.748C470.75,195.468 474.389,198.663 479.825,198.663C481.319,198.663 482.393,198.621 483.254,198.588L483.311,198.588C484.139,198.558 484.841,198.528 485.51,198.573C486.959,198.663 488.18,199.068 490.598,200.037C494.981,201.789 499.634,201.276 503.549,198.828C505.163,197.82 506.519,196.083 507.422,194.001C508.328,191.925 508.736,189.627 508.571,187.617C508.373,185.22 508.481,183.969 508.7,182.721L508.835,181.998C509.006,181.089 509.189,180.123 509.303,178.446C509.573,174.465 507.674,170.616 506.558,168.666C505.475,166.782 503.696,163.896 499.457,161.223C497.837,160.2 495.395,159.396 492.683,159.216Z" style="fill-opacity:0.8;fill-rule:nonzero;"/>
        </g>
    </g>
</svg>
